X: 22086
T: Knocknagree, The
R: polka
M: 2/4
K: Dmajor
|:A/G/|FA BA|FA A^G/A/|FA d[Bf]|e/f/e/d/ BA/G/|
FA B/c/B/A/|FA A2|af df|ef/e/ d:|
f|ab/a/ df/a/|ba b/c'/d'/b/|{a/b/}a^g/a/ bf|af e2|
ab/a/ df/a/|ba bd'|{a/b/}af ed/e/|fd dF|
AB/A/ DF/A/|BA B/c/d/B/|{A/B/}A^G/A/ BF|AF D/E/F/G/|
A2 DF/A/|BA B/c/d {A/B/}AF E^D/E/|FD D||

